X: 1
T: Old Man's Blackthorn Stick, The
M: 4/4
L: 1/8
R: reel
K: Dmaj
DEFG A2GF|EFGF EB~B2|DEFG AB=cA|1GEcE EDD2:|2GEcE EDDE||
Dd~d2 dcAG|FGAB =c2Ad|d2Ad dcAd|cAGE EDD2|
Dd~d2 dcAD|FGAB =cBcd|ed~d2 cAAB|=cBcd edd2||
